X:90
T:Adam uti Paradise
C:Sigurd Fjedstad
D:Anon Egland Heilo HCD 7136
L:1/8
M:4/4
N:Adam uti paradise
N:Adam uti paradis
N:slakta og at opp ein halvraten gris.
N:Kjotet detat han opp
N:pylsone gav han bort
N:fotane blei ikkje ti nake stort
N:Adam in paradise slaughtered and ate a half-rotten pig.  He ate the
N:meat and gave away the sausages. The feet never became anything much.
O:Norway
R:Reinlnder
Z:Carol Turner
%%TUNEURL: http://www.leeds.ac.uk/music/Info/RRTuneBk/gettune/00000ee8.html
%%ID:00000ee8
K:D
E2 G>B  A>c e2 | E2 G>B A>c e2 | e>d c>e g2 a>g \
|1f>e d<f e4 :|2 f>e d<f e2 (3ef^g ||
|:\
a2e2 e>d B>e | c2A2 A>G E>G | A>G A>c e>d B>G \
|1 A>c f<de4 :|2 A>c B<G A4 |]
